tesla.svg

<svg viewBox="0 0 24 24" xmlns="http://www.w3.org/2000/svg"><path d="M12.0013 23.9488L15.3589 5.06568C18.5592 5.06568 19.5687 5.41662 19.7145 6.84904C19.7145 6.84904 21.8613 6.04855 22.9442 4.42277C18.7187 2.46479 14.4731 2.37649 14.4731 2.37649L11.9957 5.39391L12.0013 5.39353L9.52395 2.37602C9.52395 2.37602 5.27825 2.46441 1.05338 4.42239C2.13525 6.04817 4.28298 6.84867 4.28298 6.84867C4.42959 5.41615 5.43782 5.06521 8.6167 5.06294L12.0013 23.9488ZM12 1.50492C15.4157 1.4788 19.3253 2.03331 23.3276 3.77768C23.8625 2.81488 24 2.38936 24 2.38936C19.6249 0.658433 15.5277 0.0660609 11.9995 0.051202C8.47151 0.066061 4.3745 0.658527 0 2.38936C0 2.38936 0.195154 2.9135 0.671967 3.77768C4.67348 2.03331 8.58376 1.4788 11.9995 1.50492L12 1.50492Z" fill="#e82127"/></svg>

<svg viewBox="0 0 24 24" xmlns="http://www.w3.org/2000/svg"><path d="M12.001 23.949 15.36 5.066c3.2 0 4.21.35 4.356 1.783 0 0 2.146-.8 3.23-2.426-4.226-1.958-8.472-2.047-8.472-2.047l-2.477 3.018H12L9.524 2.376s-4.246.088-8.47 2.046C2.134 6.048 4.282 6.85 4.282 6.85c.147-1.433 1.155-1.784 4.334-1.786L12 23.949ZM12 1.505c3.416-.026 7.325.528 11.328 2.273.535-.963.672-1.389.672-1.389C19.625.66 15.528.066 12 .051 8.471.066 4.374.66 0 2.39c0 0 .195.525.672 1.389 4.001-1.745 7.912-2.3 11.327-2.273H12Z" fill="#e82127"/></svg>
